modules/hawcons-filled/icons/icon-63-face-glasses.svg

<?xml version="1.0" encoding="UTF-8" standalone="no"?>
<svg width="32px" height="32px" viewBox="0 0 32 32" version="1.1" xmlns="http://www.w3.org/2000/svg" xmlns:xlink="http://www.w3.org/1999/xlink" xmlns:sketch="http://www.bohemiancoding.com/sketch/ns">
    <!-- Generator: Sketch 3.0.3 (7891) - http://www.bohemiancoding.com/sketch -->
    <title>icon 63 face glasses</title>
    <desc>Created with Sketch.</desc>
    <defs></defs>
    <g id="Page-1" stroke="none" stroke-width="1" fill="none" fill-rule="evenodd" sketch:type="MSPage">
        <g id="icon-63-face-glasses" sketch:type="MSArtboardGroup" fill="#929292">
            <path d="M16.5,10.7067832 C16.4371052,10.6970022 16.3740788,10.6853571 16.3099271,10.6720016 C13.1071965,9.86964699 8.59150578,9.90713614 6.26850774,10.2629847 C5.98799485,10.305955 5.94396034,11.4782082 6.1934345,11.5192238 C6.65256911,11.6880245 6.8484544,12.1092575 6.8484544,12.1092575 C6.8484544,12.1092575 6.98554874,12.4830367 7.38368577,14.0031105 C7.78182279,15.5231843 8.73097581,15.7054579 8.73097581,15.7054579 C8.73097581,15.7054579 9.8927002,15.966797 11.2328163,15.9667969 C12.5729323,15.9667969 13.3745868,15.9114041 14.232835,15.5211408 C15.0910833,15.1308775 15.4661959,14.0439815 15.4661959,14.0439815 C15.4661959,14.0439815 15.8986159,13.1074128 16.1963172,12.2236961 C16.241495,12.0895873 16.3597453,11.9984271 16.5,11.9400541 C16.6402547,11.9984271 16.758505,12.0895873 16.8036828,12.2236961 C17.1013841,13.1074128 17.5338041,14.0439815 17.5338041,14.0439815 C17.5338041,14.0439815 17.9089167,15.1308775 18.767165,15.5211408 C19.6254132,15.9114041 20.4270677,15.9667969 21.7671837,15.9667969 C23.1072998,15.966797 24.2690242,15.7054579 24.2690242,15.7054579 C24.2690242,15.7054579 25.2181772,15.5231843 25.6163142,14.0031105 C26.0144513,12.4830367 26.1515456,12.1092575 26.1515456,12.1092575 C26.1515456,12.1092575 26.3474309,11.6880245 26.8065655,11.5192238 C27.0560397,11.4782082 27.0120051,10.305955 26.7314923,10.2629847 C24.4084942,9.90713614 19.8928035,9.86964699 16.6900729,10.6720016 C16.6259212,10.6853571 16.5628948,10.6970022 16.5,10.7067832 L16.5,10.7067832 Z M16.5,29 C23.4035597,29 29,23.4035597 29,16.5 C29,9.59644029 23.4035597,4 16.5,4 C9.59644029,4 4,9.59644029 4,16.5 C4,23.4035597 9.59644029,29 16.5,29 Z M16.4813232,22 C13,22 11,20 11,20 L11,21 C11,21 13,23 16.4813232,23 C19.9626465,23 22,21 22,21 L22,20 C22,20 19.9626465,22 16.4813232,22 Z M8.4401372,11.3171163 C7.82900265,11.7124302 8.01704051,12.6805629 8.06485266,13.0006313 C8.11266484,13.3206997 8.22903563,13.7617568 8.3664582,14.0310309 C8.68399007,14.6532221 8.95283925,14.7510594 9.49292532,14.86113 C10.0330114,14.9712005 10.5816451,15 11.2575071,15 C12.4213638,15 13.3473808,14.785453 13.7688775,14.5163793 C14.1903741,14.2473056 14.5928354,13.5949147 14.7209259,13.2293133 C14.8093349,12.9769728 15.4846854,11.8034888 14.345716,11.4585221 C13.2067466,11.1135555 12.0340508,11.0200373 11.3938966,11.0044603 C10.7537424,10.9888832 8.93455837,10.9972987 8.4401372,11.3171163 Z M24.5598628,11.3171163 C25.1709973,11.7124302 24.9829595,12.6805629 24.9351473,13.0006313 C24.8873352,13.3206997 24.7709644,13.7617568 24.6335418,14.0310309 C24.3160099,14.6532221 24.0471608,14.7510594 23.5070747,14.86113 C22.9669886,14.9712005 22.4183549,15 21.7424929,15 C20.5786362,15 19.6526192,14.785453 19.2311225,14.5163793 C18.8096259,14.2473056 18.4071646,13.5949147 18.2790741,13.2293133 C18.1906651,12.9769728 17.5153146,11.8034888 18.654284,11.4585221 C19.7932534,11.1135555 20.9659492,11.0200373 21.6061034,11.0044603 C22.2462576,10.9888832 24.0654416,10.9972987 24.5598628,11.3171163 Z M12,14 C12.5522848,14 13,13.5522848 13,13 C13,12.4477152 12.5522848,12 12,12 C11.4477152,12 11,12.4477152 11,13 C11,13.5522848 11.4477152,14 12,14 Z M21,14 C21.5522848,14 22,13.5522848 22,13 C22,12.4477152 21.5522848,12 21,12 C20.4477152,12 20,12.4477152 20,13 C20,13.5522848 20.4477152,14 21,14 Z" id="face-glasses" sketch:type="MSShapeGroup"></path>
        </g>
    </g>
</svg>

<svg width="32" height="32" xmlns="http://www.w3.org/2000/svg"><path d="M16.5 10.707a3.783 3.783 0 0 1-.19-.035c-3.203-.802-7.718-.765-10.041-.409-.281.043-.325 1.215-.076 1.256.46.169.655.59.655.59s.138.374.536 1.894 1.347 1.702 1.347 1.702 1.162.262 2.502.262c1.34 0 2.142-.056 3-.446.858-.39 1.233-1.477 1.233-1.477s.433-.937.73-1.82c.045-.134.164-.226.304-.284.14.058.259.15.304.284.297.883.73 1.82.73 1.82s.375 1.087 1.233 1.477c.858.39 1.66.446 3 .446s2.502-.262 2.502-.262.95-.182 1.347-1.702c.398-1.52.536-1.894.536-1.894s.195-.421.655-.59c.249-.04.205-1.213-.076-1.256-2.323-.356-6.838-.393-10.04.409a3.783 3.783 0 0 1-.191.035zM16.5 29C23.404 29 29 23.404 29 16.5S23.404 4 16.5 4 4 9.596 4 16.5 9.596 29 16.5 29zm-.019-7C13 22 11 20 11 20v1s2 2 5.481 2C19.963 23 22 21 22 21v-1s-2.037 2-5.519 2zm-8.04-10.683c-.612.395-.424 1.364-.376 1.684.048.32.164.76.301 1.03.318.622.587.72 1.127.83.54.11 1.089.139 1.765.139 1.163 0 2.09-.215 2.51-.484.422-.269.825-.921.953-1.287.088-.252.764-1.426-.375-1.77-1.14-.345-2.312-.439-2.952-.455-.64-.015-2.46-.007-2.954.313zm16.119 0c.611.395.423 1.364.375 1.684-.048.32-.164.76-.301 1.03-.318.622-.587.72-1.127.83-.54.11-1.089.139-1.765.139-1.163 0-2.09-.215-2.51-.484-.422-.269-.825-.921-.953-1.287-.088-.252-.764-1.426.375-1.77 1.14-.345 2.312-.439 2.952-.455.64-.015 2.46-.007 2.954.313zM12 14a1 1 0 1 0 0-2 1 1 0 0 0 0 2zm9 0a1 1 0 1 0 0-2 1 1 0 0 0 0 2z" fill="#929292" fill-rule="evenodd"/></svg>
